markets/INR.svg

<svg width="42" height="42" viewBox="0 0 42 42" fill="none" xmlns="http://www.w3.org/2000/svg">
<circle cx="21" cy="21" r="21" fill="#06061B"/>
<path d="M14.9146 19.7645C15.0023 19.7645 15.1337 19.7645 15.309 19.7645C15.493 19.7645 15.6814 19.7645 15.8742 19.7645C16.0758 19.7645 16.2642 19.7645 16.4395 19.7645C16.6235 19.7558 16.7593 19.7514 16.847 19.7514C17.2238 19.7514 17.5875 19.747 17.938 19.7382C18.2885 19.7295 18.6216 19.6813 18.937 19.5936C19.2525 19.506 19.5505 19.3658 19.8309 19.173C20.1113 18.9714 20.3699 18.6822 20.6065 18.3054H14.31C14.4151 18.0513 14.551 17.7708 14.7175 17.4641C14.8927 17.1486 15.0636 16.8507 15.2301 16.5703C15.4229 16.246 15.6245 15.9218 15.8348 15.5975H20.1332C20.1332 15.4836 20.0763 15.3521 19.9624 15.2032C19.8572 15.0542 19.717 14.914 19.5417 14.7825C19.3664 14.6423 19.1737 14.5284 18.9633 14.4408C18.7618 14.3444 18.569 14.2962 18.3849 14.2962H14.1522C14.2223 14.191 14.3231 14.0464 14.4546 13.8624C14.586 13.6696 14.7306 13.4636 14.8883 13.2445C15.0461 13.0255 15.2038 12.802 15.3616 12.5741C15.5281 12.3375 15.6771 12.1272 15.8085 11.9432C15.9487 11.7504 16.0626 11.597 16.1503 11.4831C16.2467 11.3604 16.2993 11.2991 16.308 11.2991H26.8372C26.846 11.3078 26.8197 11.3867 26.7584 11.5357C26.697 11.6847 26.6182 11.8687 26.5218 12.0878C26.4341 12.3069 26.3334 12.5479 26.2194 12.8108C26.1143 13.0649 26.0135 13.3015 25.9171 13.5206C25.8207 13.7397 25.7374 13.9237 25.6673 14.0727C25.5972 14.2217 25.5622 14.2962 25.5622 14.2962H24.1031C24.1206 14.3487 24.1469 14.4364 24.1819 14.5591C24.2258 14.673 24.2696 14.8001 24.3134 14.9403C24.3572 15.0805 24.3966 15.2119 24.4317 15.3346C24.4667 15.4573 24.4887 15.5449 24.4974 15.5975H27.9414L26.3246 18.3054H24.6157C24.4667 19.0065 24.2258 19.5893 23.8927 20.0537C23.5597 20.5182 23.1654 20.8994 22.7097 21.1973C22.254 21.4865 21.7589 21.7144 21.2243 21.8809C20.6985 22.0386 20.1639 22.1613 19.6206 22.2489L24.9838 29.6365V30.7012H21.2769L14.9146 22.2227V19.7645Z" fill="white"/>
</svg>

<svg xmlns="http://www.w3.org/2000/svg" width="42" height="42" fill="none"><circle cx="21" cy="21" r="21" fill="#06061B"/><path fill="#fff" d="M14.915 19.765h1.524c.184-.01.32-.014.408-.014.377 0 .74-.004 1.091-.013.35-.008.684-.057.999-.144.316-.088.613-.228.894-.421.28-.202.539-.49.776-.868H14.31c.105-.254.241-.534.407-.84a29.427 29.427 0 0 1 1.117-1.867h4.3c0-.114-.058-.246-.172-.395a1.912 1.912 0 0 0-.42-.42 2.394 2.394 0 0 0-.579-.342 1.34 1.34 0 0 0-.578-.145h-4.233c.07-.105.171-.25.303-.434.131-.192.276-.398.433-.617.158-.22.316-.443.474-.67.166-.237.315-.448.447-.632.14-.193.254-.346.341-.46.097-.123.15-.184.158-.184h10.53c.008.009-.018.088-.08.237-.061.149-.14.333-.236.552-.088.219-.189.46-.303.723a34.705 34.705 0 0 1-.552 1.262l-.105.223h-1.459c.018.053.044.14.079.263.044.114.088.241.131.381.044.14.084.272.119.395.035.122.057.21.065.262h3.444l-1.616 2.708h-1.71c-.148.701-.39 1.284-.722 1.749a4.439 4.439 0 0 1-1.183 1.143c-.456.29-.951.517-1.486.684-.526.158-1.06.28-1.603.368l5.363 7.388V30.7h-3.707l-6.362-8.478v-2.458Z"/></svg>
